build/img/icons/telegram.svg

<svg class="t460__svg" xmlns="http://www.w3.org/2000/svg" width="25" height="25" viewBox="0 0 60 60"><path d="M52.5 9L6.1 26.9c-.9.4-.9 1.8 0 2.3L18 34.1l4.4 14.1c.3.8 1.2 1 1.8.5l6.8-6.4L43.9 51c.7.4 1.6 0 1.7-.7l8.4-40c.2-.8-.7-1.6-1.5-1.3zm-28 27.7l-.7 7.3-3.6-11.2L45.5 16l-21 20.7z" fill="#101010"/></svg>

<svg class="t460__svg" version="1.1" id="Layer_1" xmlns="http://www.w3.org/2000/svg" xmlns:xlink="http://www.w3.org/1999/xlink" width="25px" height="25px" viewBox="0 0 60 60" xml:space="preserve"><desc>Telegram</desc><path style="fill:#101010;" d="M52.5,9L6.1,26.9c-0.9,0.4-0.9,1.8,0,2.3l11.9,4.9l4.4,14.1c0.3,0.8,1.2,1,1.8,0.5l6.8-6.4l12.9,8.7c0.7,0.4,1.6,0,1.7-0.7L54,10.3C54.2,9.5,53.3,8.7,52.5,9z M24.5,36.7L23.8,44l-3.6-11.2l25.3-16.8L24.5,36.7z"></path></svg>
